src/svg/uf08e-external-link.svg

<!-- Generated by IcoMoon.io -->
<svg version="1.1" xmlns="http://www.w3.org/2000/svg" width="32" height="32" viewBox="0 0 32 32">
<path d="M25.143 16.571v5.714c0 2.839-2.304 5.143-5.143 5.143h-14.857c-2.839 0-5.143-2.304-5.143-5.143v-14.857c0-2.839 2.304-5.143 5.143-5.143h12.571c0.321 0 0.571 0.25 0.571 0.571v1.143c0 0.321-0.25 0.571-0.571 0.571h-12.571c-1.571 0-2.857 1.286-2.857 2.857v14.857c0 1.571 1.286 2.857 2.857 2.857h14.857c1.571 0 2.857-1.286 2.857-2.857v-5.714c0-0.321 0.25-0.571 0.571-0.571h1.143c0.321 0 0.571 0.25 0.571 0.571zM32 1.143v9.143c0 0.625-0.518 1.143-1.143 1.143-0.304 0-0.589-0.125-0.804-0.339l-3.143-3.143-11.643 11.643c-0.107 0.107-0.268 0.179-0.411 0.179s-0.304-0.071-0.411-0.179l-2.036-2.036c-0.107-0.107-0.179-0.268-0.179-0.411s0.071-0.304 0.179-0.411l11.643-11.643-3.143-3.143c-0.214-0.214-0.339-0.5-0.339-0.804 0-0.625 0.518-1.143 1.143-1.143h9.143c0.625 0 1.143 0.518 1.143 1.143z"></path>
</svg>

<svg xmlns="http://www.w3.org/2000/svg" width="32" height="32"><path d="M25.143 16.571v5.714A5.145 5.145 0 0 1 20 27.428H5.143A5.145 5.145 0 0 1 0 22.285V7.428a5.145 5.145 0 0 1 5.143-5.143h12.571c.321 0 .571.25.571.571v1.143c0 .321-.25.571-.571.571H5.143a2.866 2.866 0 0 0-2.857 2.857v14.857a2.866 2.866 0 0 0 2.857 2.857H20a2.866 2.866 0 0 0 2.857-2.857V16.57c0-.321.25-.571.571-.571h1.143c.321 0 .571.25.571.571zM32 1.143v9.143c0 .625-.518 1.143-1.143 1.143-.304 0-.589-.125-.804-.339L26.91 7.947 15.267 19.59c-.107.107-.268.179-.411.179s-.304-.071-.411-.179l-2.036-2.036c-.107-.107-.179-.268-.179-.411s.071-.304.179-.411L24.052 5.089l-3.143-3.143a1.137 1.137 0 0 1-.339-.804c0-.625.518-1.143 1.143-1.143h9.143c.625 0 1.143.518 1.143 1.143z"/></svg>
